images/secret/inception-train.svg

<?xml version="1.0" standalone="no"?><!DOCTYPE svg PUBLIC "-//W3C//DTD SVG 1.1//EN" "http://www.w3.org/Graphics/SVG/1.1/DTD/svg11.dtd"><svg width="336px" height="384px" version="1.1" xmlns="http://www.w3.org/2000/svg" xmlns:xlink="http://www.w3.org/1999/xlink" xml:space="preserve" style="fill-rule:evenodd;clip-rule:evenodd;stroke-linejoin:round;stroke-miterlimit:1.41421;"><g><g id="inception-train" transform="matrix(0.5,0,0,0.5,-24,0)"><g id="side-railings"><path d="M97.877,675.1l-12.885,-17.276l23.008,-380.824l13,0l0.371,-15l-26.371,0l-25,401.918l23.844,35.863l4.033,-24.681Z" style="fill:#c1beba;fill-rule:nonzero;"/><path d="M661.494,675.1l12.885,-17.276l-23.008,-380.824l-13,0l-0.371,-15l26.371,0l25,401.918l-23.844,35.863l-4.033,-24.681Z" style="fill:#c1beba;fill-rule:nonzero;"/></g><g id="top"><path d="M389.474,67.4072l-3.116,65.04l-10.5,0l2.948,-65.04l10.668,0Z" style="fill:#2a2b2a;fill-rule:nonzero;"/><path d="M338.832,60.229l84.336,3.116l0,10.5l-84.336,-2.948l0,-10.668Z" style="fill:#2a2b2a;fill-rule:nonzero;"/><path d="M330.369,47.1792l-8.207,22.324l49.055,0.084l-7.988,-22.506l-32.86,0.098Z" style="fill:#2a2b2a;fill-rule:nonzero;"/><path d="M330.369,90.9961l-8.207,-22.324l49.055,-0.085l-7.988,22.507l-32.86,-0.098Z" style="fill:#2a2b2a;fill-rule:nonzero;"/><path d="M402.092,51.0806l-6.73,18.307l40.228,0.069l-6.551,-18.456l-26.947,0.08Z" style="fill:#2a2b2a;fill-rule:nonzero;"/><path d="M402.092,87.0137l-6.73,-18.307l40.228,-0.069l-6.551,18.456l-26.947,-0.08Z" style="fill:#2a2b2a;fill-rule:nonzero;"/></g><g id="wheels"><path d="M612.112,768l32.142,0l4.746,-68.628l-36.935,-0.592l0.047,69.22Z" style="fill:#292a29;fill-rule:nonzero;"/><g transform="matrix(1,0,0,1,0,0.7014)"><path d="M120.966,705.688l4.747,61.611l32.142,0l0.047,-62.203l-36.936,0.592Z" style="fill:#292a29;fill-rule:nonzero;"/></g></g><g id="train"><path d="M651,625l-540,0l12,-432.892l57.093,-74.108l147.993,-18l96.997,0l153.991,18l59.926,69.108l12,437.892Z" style="fill:#2a2b2a;fill-rule:nonzero;"/><path d="M671,752l-581,0l7,-131l566,0l8,131Z" style="fill:#5c5e5f;fill-rule:nonzero;"/></g><g id="window"><path d="M173.5,203.5l-17.788,22.392l-6.712,165.108l63.5,-1l2.5,-41.001l325,-1.999l3.999,43l70.001,1l-3,-165.875l-19,-22.875l-418.5,1.25Z" style="fill:#313156;fill-rule:nonzero;"/><clipPath id="tag1"><path d="M173.5,203.5l-17.787,22.392l-6.713,165.108l63.5,-1l2.5,-41l325,-2l4,43l70,1l-3,-165.875l-19,-22.875l-418.5,1.25Z"/></clipPath><g clip-path="url(#tag1)"><g opacity="0.300003"><path d="M630.532,398l-6.532,-202l-23,-16.279l-234.624,224.847l264.156,-6.568Z" style="fill:#0a1723;fill-rule:nonzero;"/></g><g opacity="0.300003"><path d="M138,194l-14,199l25.209,1.557l199.364,-199.188l-210.573,-1.369Z" style="fill:#0a1723;fill-rule:nonzero;"/></g></g><path d="M567.642,202.323l-145.4,145.402l12.258,-0.076l145.147,-145.362l-12.005,0.036Z" style="fill:#494a72;fill-rule:nonzero;"/><path d="M239.322,350l8.435,-147.691l-25.757,-0.046l-7,147.737l24.322,0Z" style="fill:#2a2b2a;fill-rule:nonzero;"/><path d="M515.435,350l-8.435,-147.691l25.757,-0.046l7,147.737l-24.322,0Z" style="fill:#2a2b2a;fill-rule:nonzero;"/><path d="M509.693,195.682l-3.852,7.871l-255.493,0.111l-5.183,-8.544l264.528,0.562Z" style="fill:#5c5e5f;fill-rule:nonzero;"/><path d="M211.926,390.047l-3.852,7.871l-51.682,0.111l-5.184,-8.544l60.718,0.562Z" style="fill:#5c5e5f;fill-rule:nonzero;"/><path d="M611.277,390.047l-3.852,7.871l-56.132,0.111l-5.184,-8.544l65.168,0.562Z" style="fill:#5c5e5f;fill-rule:nonzero;"/><path d="M227.926,195.41l-3.852,7.871l-51.682,0.111l-5.184,-8.544l60.718,0.562Z" style="fill:#5c5e5f;fill-rule:nonzero;"/><path d="M592.277,196.41l-3.852,7.871l-56.132,0.111l-5.184,-8.544l65.168,0.562Z" style="fill:#5c5e5f;fill-rule:nonzero;"/></g><g id="grill"><path d="M209,621l342,0l-20.357,-274.713l-301.504,-0.169l-20.139,274.882Z" style="fill:#2a2b2a;fill-rule:nonzero;"/><path d="M213.391,561.07l-4.391,59.931l3.772,0l167.228,-167.228l0,-59.312l-166.609,166.609Z" style="fill:#f4f2ed;fill-rule:nonzero;"/><path d="M222.611,435.225l-4.689,64.001l153.027,-153.027l-59.279,-0.034l-89.059,89.06Z" style="fill:#f4f2ed;fill-rule:nonzero;"/><path d="M272.733,619.613l1.387,1.387l56.54,0l49.34,-49.339l0,-59.314l-107.267,107.266Z" style="fill:#f4f2ed;fill-rule:nonzero;"/><path d="M227.241,372.018l25.886,-25.886l-23.988,-0.014l-1.898,25.9Z" style="fill:#f4f2ed;fill-rule:nonzero;"/><path d="M380,453.772l167.227,167.228l3.773,0l-4.445,-59.985l-166.555,-166.555l0,59.312Z" style="fill:#f4f2ed;fill-rule:nonzero;"/><path d="M541.968,499.115l-4.747,-64.059l-88.814,-88.815l-59.345,-0.033l152.906,152.907Z" style="fill:#f4f2ed;fill-rule:nonzero;"/><path d="M380,571.66l49.34,49.34l56.54,0l1.387,-1.387l-107.267,-107.267l0,59.314Z" style="fill:#f4f2ed;fill-rule:nonzero;"/><path d="M532.533,371.793l-1.89,-25.506l-23.629,-0.013l25.519,25.519Z" style="fill:#f4f2ed;fill-rule:nonzero;"/><clipPath id="tag2"><path d="M209,621l342,0l-20.357,-274.713l-301.504,-0.168l-20.139,274.881Z"/></clipPath><g clip-path="url(#tag2)"><g opacity="0.100006"><rect x="380" y="341" width="196" height="280" style="fill:#2a2b2a;fill-rule:nonzero;"/></g></g></g><g id="numbers"><path d="M255.804,146.659l0,-5.73l16.697,0.146l0.303,-5.49l-22.869,0.449l0.057,16.543l16.277,0.211l0.029,8.394l-15.793,0.493l-0.181,4.855l22.076,-0.055l-0.002,-19.39l-16.594,-0.426Z" style="fill:#f4f2ed;fill-rule:nonzero;"/><path d="M323.447,146.659l0,-5.73l-16.697,0.146l-0.303,-5.49l22.869,0.449l-0.057,16.543l-16.277,0.211l-0.029,8.394l15.793,0.493l0.181,4.855l-22.076,-0.055l0.002,-19.39l16.594,-0.426Z" style="fill:#f4f2ed;fill-rule:nonzero;"/><path d="M239.322,146.659l0,-5.73l-16.697,0.146l-0.303,-5.49l22.869,0.449l-0.26,30.496l-22.609,-0.422l0.422,-4.938l16.312,0.188l0.124,-8.707l-16.452,0.082l0,-5.648l16.594,-0.426Z" style="fill:#f4f2ed;fill-rule:nonzero;"/><path d="M295.665,162.484l-10.802,-0.002l-0.493,-21.957l11.499,0.208l-0.204,21.751ZM278.435,135.585l0.404,30.891l22.076,0.054l0.389,-30.496l-22.869,-0.449Z" style="fill:#f4f2ed;fill-rule:nonzero;"/><path d="M481.644,147.085l-16.594,-0.426l0,-5.73l16.697,0.146l0.303,-5.49l-22.869,0.449l0.057,16.543l16.277,0.211l0.029,8.394l-15.793,0.493l-0.181,4.855l22.076,-0.055l-0.002,-19.39Z" style="fill:#f4f2ed;fill-rule:nonzero;"/><path d="M532.693,146.659l0,-5.73l-16.697,0.146l-0.303,-5.49l22.869,0.449l-0.057,16.543l-16.277,0.211l-0.029,8.394l15.793,0.493l0.181,4.855l-22.076,-0.055l0.002,-19.39l16.594,-0.426Z" style="fill:#f4f2ed;fill-rule:nonzero;"/><path d="M448.568,146.659l0,-5.73l-16.697,0.146l-0.303,-5.49l22.869,0.449l-0.26,30.496l-22.609,-0.422l0.422,-4.938l16.312,0.188l0.124,-8.707l-16.452,0.082l0,-5.648l16.594,-0.426Z" style="fill:#f4f2ed;fill-rule:nonzero;"/><path d="M504.911,162.484l-10.802,-0.002l-0.493,-21.957l11.499,0.208l-0.204,21.751ZM487.681,135.585l0.404,30.891l22.076,0.054l0.389,-30.496l-22.869,-0.449Z" style="fill:#f4f2ed;fill-rule:nonzero;"/></g><g id="railings"><path d="M150.098,646.986l9.074,4.682" style="fill:#c1bebb;fill-rule:nonzero;"/><path d="M288.172,475.232l8.016,3.577l1.984,166.859l-9.074,-4.682l-0.926,-165.754Z" style="fill:#c1bebb;fill-rule:nonzero;"/><path d="M472,475.232l-8.016,3.577l-1.984,166.859l9.074,-4.682l0.926,-165.754Z" style="fill:#c1bebb;fill-rule:nonzero;"/><path d="M611.537,589.334l-33.365,-118.334l-390.172,0l-33.365,118.334l-3.463,92.666l20.01,7.959l0.306,-9.791l-11.441,-4.543l2.842,-82.27l33.111,-112.355l374.172,0l33.111,112.355l2.842,82.27l-11.442,4.543l0.307,9.791l20.01,-7.959l-3.463,-92.666Z" style="fill:#c1bebb;fill-rule:nonzero;"/></g><g id="skirt"><path d="M602,758l-435,0l7,-139l420,0l8,139Z" style="fill:#2a2b2a;fill-rule:nonzero;"/></g><g id="doodads"><path d="M360.003,725.124l-10.055,-30.233l60.103,-0.116l-9.785,30.48l-40.263,-0.131Z" style="fill:#645849;fill-rule:nonzero;"/><path d="M370.815,117.222l-5.457,19.761l32.616,0.074l-5.31,-19.921l-21.849,0.086Z" style="fill:#c1beba;fill-rule:nonzero;"/><path d="M370.815,148.249l-5.457,19.761l32.616,0.074l-5.31,-19.921l-21.849,0.086Z" style="fill:#c1beba;fill-rule:nonzero;"/></g><g id="lights"><path d="M187.929,570.652l-6.055,50.233l60.102,0.115l-5.784,-50.48l-48.263,0.132Z" style="fill:#2a2b2a;fill-rule:nonzero;"/><path d="M528.113,570.652l-6.055,50.233l60.102,0.115l-5.785,-50.48l-48.262,0.132Z" style="fill:#2a2b2a;fill-rule:nonzero;"/><path d="M565.217,597.74c0,7.236 -5.867,13.109 -13.107,13.109c-7.237,0 -13.108,-5.873 -13.108,-13.109c0,-7.242 5.871,-13.109 13.108,-13.109c7.24,0 13.107,5.867 13.107,13.109" style="fill:#c1bebb;fill-rule:nonzero;"/><path d="M224.107,597.74c0,7.236 -5.867,13.109 -13.107,13.109c-7.237,0 -13.108,-5.873 -13.108,-13.109c0,-7.242 5.871,-13.109 13.108,-13.109c7.24,0 13.107,5.867 13.107,13.109" style="fill:#c1bebb;fill-rule:nonzero;"/></g></g></g></svg>

<?xml version="1.0" encoding="UTF-8" standalone="no"?>
<!DOCTYPE svg PUBLIC "-//W3C//DTD SVG 1.1//EN" "http://www.w3.org/Graphics/SVG/1.1/DTD/svg11.dtd">
<svg width="100%" height="100%" viewBox="0 0 336 384" version="1.1" xmlns="http://www.w3.org/2000/svg" xmlns:xlink="http://www.w3.org/1999/xlink" xml:space="preserve" style="fill-rule:evenodd;clip-rule:evenodd;stroke-linejoin:round;stroke-miterlimit:1.41421;">
    <g id="inception-train" transform="matrix(0.5,0,0,0.5,-24,0)">
        <g id="side-railings">
            <g transform="matrix(1,0,0,1,4.31445,0)">
                <path d="M97.877,675.1L84.992,657.824L108,277L121,277L121.371,262L95,262L70,663.918L93.844,699.781L97.877,675.1Z" style="fill:rgb(193,190,186);fill-rule:nonzero;"/>
            </g>
            <g transform="matrix(1,0,0,1,4.31445,0)">
                <path d="M661.494,675.1L674.379,657.824L651.371,277L638.371,277L638,262L664.371,262L689.371,663.918L665.527,699.781L661.494,675.1Z" style="fill:rgb(193,190,186);fill-rule:nonzero;"/>
            </g>
        </g>
        <g id="top">
            <g transform="matrix(1,0,0,1,4.31445,0)">
                <path d="M389.474,67.407L386.358,132.447L375.858,132.447L378.806,67.407L389.474,67.407Z" style="fill:rgb(42,43,42);fill-rule:nonzero;"/>
            </g>
            <g transform="matrix(1,0,0,1,4.31445,0)">
                <path d="M338.832,60.229L423.168,63.345L423.168,73.845L338.832,70.897L338.832,60.229Z" style="fill:rgb(42,43,42);fill-rule:nonzero;"/>
            </g>
            <g transform="matrix(1,0,0,1,4.31445,0)">
                <path d="M330.369,47.179L322.162,69.503L371.217,69.587L363.229,47.081L330.369,47.179Z" style="fill:rgb(42,43,42);fill-rule:nonzero;"/>
            </g>
            <g transform="matrix(1,0,0,1,4.31445,0)">
                <path d="M330.369,90.996L322.162,68.672L371.217,68.587L363.229,91.094L330.369,90.996Z" style="fill:rgb(42,43,42);fill-rule:nonzero;"/>
            </g>
            <g transform="matrix(1,0,0,1,4.31445,0)">
                <path d="M402.092,51.081L395.362,69.388L435.59,69.457L429.039,51.001L402.092,51.081Z" style="fill:rgb(42,43,42);fill-rule:nonzero;"/>
            </g>
            <g transform="matrix(1,0,0,1,4.31445,0)">
                <path d="M402.092,87.014L395.362,68.707L435.59,68.638L429.039,87.094L402.092,87.014Z" style="fill:rgb(42,43,42);fill-rule:nonzero;"/>
            </g>
        </g>
        <g id="wheels">
            <g transform="matrix(1,0,0,1,4.31445,0)">
                <path d="M612.112,768L644.254,768L649,699.372L612.065,698.78L612.112,768Z" style="fill:rgb(41,42,41);fill-rule:nonzero;"/>
            </g>
            <g transform="matrix(1,0,0,1,4.31445,0.7014)">
                <path d="M120.966,705.688L125.713,767.299L157.855,767.299L157.902,705.096L120.966,705.688Z" style="fill:rgb(41,42,41);fill-rule:nonzero;"/>
            </g>
        </g>
        <g id="train">
            <g transform="matrix(1,0,0,1,4.31445,0)">
                <path d="M651,625L111,625L123,192.108L180.093,118L328.086,100L425.083,100L579.074,118L639,187.108L651,625Z" style="fill:rgb(42,43,42);fill-rule:nonzero;"/>
            </g>
            <g transform="matrix(1,0,0,1,4.31445,0)">
                <path d="M671,752L90,752L97,621L663,621L671,752Z" style="fill:rgb(92,94,95);fill-rule:nonzero;"/>
            </g>
        </g>
        <g id="window">
            <g transform="matrix(1,0,0,1,4.31445,0)">
                <path d="M173.5,203.5L155.712,225.892L149,391L212.5,390L215,348.999L540,347L543.999,390L614,391L611,225.125L592,202.25L173.5,203.5Z" style="fill:rgb(49,49,86);fill-rule:nonzero;"/>
            </g>
            <g transform="matrix(1,0,0,1,4.31445,0)">
                <clipPath id="_clip1">
                    <path d="M173.5,203.5L155.713,225.892L149,391L212.5,390L215,349L540,347L544,390L614,391L611,225.125L592,202.25L173.5,203.5Z"/>
                </clipPath>
                <g clip-path="url(#_clip1)">
                    <g>
                        <g opacity="0.300003">
                            <path d="M630.532,398L624,196L601,179.721L366.376,404.568L630.532,398Z" style="fill:rgb(10,23,35);fill-rule:nonzero;"/>
                        </g>
                    </g>
                    <g>
                        <g opacity="0.300003">
                            <path d="M138,194L124,393L149.209,394.557L348.573,195.369L138,194Z" style="fill:rgb(10,23,35);fill-rule:nonzero;"/>
                        </g>
                    </g>
                </g>
            </g>
            <g transform="matrix(1,0,0,1,4.31445,0)">
                <path d="M567.642,202.323L422.242,347.725L434.5,347.649L579.647,202.287L567.642,202.323Z" style="fill:rgb(73,74,114);fill-rule:nonzero;"/>
            </g>
            <g transform="matrix(1,0,0,1,4.31445,0)">
                <path d="M239.322,350L247.757,202.309L222,202.263L215,350L239.322,350Z" style="fill:rgb(42,43,42);fill-rule:nonzero;"/>
            </g>
            <g transform="matrix(1,0,0,1,4.31445,0)">
                <path d="M515.435,350L507,202.309L532.757,202.263L539.757,350L515.435,350Z" style="fill:rgb(42,43,42);fill-rule:nonzero;"/>
            </g>
            <g transform="matrix(1,0,0,1,4.31445,0)">
                <path d="M509.693,195.682L505.841,203.553L250.348,203.664L245.165,195.12L509.693,195.682Z" style="fill:rgb(92,94,95);fill-rule:nonzero;"/>
            </g>
            <g transform="matrix(1,0,0,1,4.31445,0)">
                <path d="M211.926,390.047L208.074,397.918L156.392,398.029L151.208,389.485L211.926,390.047Z" style="fill:rgb(92,94,95);fill-rule:nonzero;"/>
            </g>
            <g transform="matrix(1,0,0,1,4.31445,0)">
                <path d="M611.277,390.047L607.425,397.918L551.293,398.029L546.109,389.485L611.277,390.047Z" style="fill:rgb(92,94,95);fill-rule:nonzero;"/>
            </g>
            <g transform="matrix(1,0,0,1,4.31445,0)">
                <path d="M227.926,195.41L224.074,203.281L172.392,203.392L167.208,194.848L227.926,195.41Z" style="fill:rgb(92,94,95);fill-rule:nonzero;"/>
            </g>
            <g transform="matrix(1,0,0,1,4.31445,0)">
                <path d="M592.277,196.41L588.425,204.281L532.293,204.392L527.109,195.848L592.277,196.41Z" style="fill:rgb(92,94,95);fill-rule:nonzero;"/>
            </g>
        </g>
        <g id="grill">
            <g transform="matrix(1,0,0,1,4.31445,0)">
                <path d="M209,621L551,621L530.643,346.287L229.139,346.118L209,621Z" style="fill:rgb(42,43,42);fill-rule:nonzero;"/>
            </g>
            <g transform="matrix(1,0,0,1,4.31445,0)">
                <path d="M213.391,561.07L209,621.001L212.772,621.001L380,453.773L380,394.461L213.391,561.07Z" style="fill:rgb(244,242,237);fill-rule:nonzero;"/>
            </g>
            <g transform="matrix(1,0,0,1,4.31445,0)">
                <path d="M222.611,435.225L217.922,499.226L370.949,346.199L311.67,346.165L222.611,435.225Z" style="fill:rgb(244,242,237);fill-rule:nonzero;"/>
            </g>
            <g transform="matrix(1,0,0,1,4.31445,0)">
                <path d="M272.733,619.613L274.12,621L330.66,621L380,571.661L380,512.347L272.733,619.613Z" style="fill:rgb(244,242,237);fill-rule:nonzero;"/>
            </g>
            <g transform="matrix(1,0,0,1,4.31445,0)">
                <path d="M227.241,372.018L253.127,346.132L229.139,346.118L227.241,372.018Z" style="fill:rgb(244,242,237);fill-rule:nonzero;"/>
            </g>
            <g transform="matrix(1,0,0,1,4.31445,0)">
                <path d="M380,453.772L547.227,621L551,621L546.555,561.015L380,394.46L380,453.772Z" style="fill:rgb(244,242,237);fill-rule:nonzero;"/>
            </g>
            <g transform="matrix(1,0,0,1,4.31445,0)">
                <path d="M541.968,499.115L537.221,435.056L448.407,346.241L389.062,346.208L541.968,499.115Z" style="fill:rgb(244,242,237);fill-rule:nonzero;"/>
            </g>
            <g transform="matrix(1,0,0,1,4.31445,0)">
                <path d="M380,571.661L429.34,621.001L485.88,621.001L487.267,619.613L380,512.347L380,571.661Z" style="fill:rgb(244,242,237);fill-rule:nonzero;"/>
            </g>
            <g transform="matrix(1,0,0,1,4.31445,0)">
                <path d="M532.533,371.793L530.643,346.287L507.014,346.274L532.533,371.793Z" style="fill:rgb(244,242,237);fill-rule:nonzero;"/>
            </g>
            <g transform="matrix(1,0,0,1,4.31445,0)">
                <clipPath id="_clip2">
                    <path d="M209,621L551,621L530.643,346.287L229.139,346.119L209,621Z"/>
                </clipPath>
                <g clip-path="url(#_clip2)">
                    <g>
                        <g opacity="0.100006">
                            <rect x="380" y="341" width="196" height="280" style="fill:rgb(42,43,42);fill-rule:nonzero;"/>
                        </g>
                    </g>
                </g>
            </g>
        </g>
        <g id="numbers">
            <g transform="matrix(1,0,0,1,4.31445,0)">
                <path d="M255.804,146.659L255.804,140.929L272.501,141.075L272.804,135.585L249.935,136.034L249.992,152.577L266.269,152.788L266.298,161.182L250.505,161.675L250.324,166.53L272.4,166.475L272.398,147.085L255.804,146.659Z" style="fill:rgb(244,242,237);fill-rule:nonzero;"/>
            </g>
            <g transform="matrix(1,0,0,1,4.31445,0)">
                <path d="M323.447,146.659L323.447,140.929L306.75,141.075L306.447,135.585L329.316,136.034L329.259,152.577L312.982,152.788L312.953,161.182L328.746,161.675L328.927,166.53L306.851,166.475L306.853,147.085L323.447,146.659Z" style="fill:rgb(244,242,237);fill-rule:nonzero;"/>
            </g>
            <g transform="matrix(1,0,0,1,4.31445,0)">
                <path d="M239.322,146.659L239.322,140.929L222.625,141.075L222.322,135.585L245.191,136.034L244.931,166.53L222.322,166.108L222.744,161.17L239.056,161.358L239.18,152.651L222.728,152.733L222.728,147.085L239.322,146.659Z" style="fill:rgb(244,242,237);fill-rule:nonzero;"/>
            </g>
            <g transform="matrix(1,0,0,1,4.31445,0)">
                <path d="M295.665,162.484L284.863,162.482L284.37,140.525L295.869,140.733L295.665,162.484ZM278.435,135.585L278.839,166.476L300.915,166.53L301.304,136.034L278.435,135.585Z" style="fill:rgb(244,242,237);fill-rule:nonzero;"/>
            </g>
            <g transform="matrix(1,0,0,1,4.31445,0)">
                <path d="M481.644,147.085L465.05,146.659L465.05,140.929L481.747,141.075L482.05,135.585L459.181,136.034L459.238,152.577L475.515,152.788L475.544,161.182L459.751,161.675L459.57,166.53L481.646,166.475L481.644,147.085Z" style="fill:rgb(244,242,237);fill-rule:nonzero;"/>
            </g>
            <g transform="matrix(1,0,0,1,4.31445,0)">
                <path d="M532.693,146.659L532.693,140.929L515.996,141.075L515.693,135.585L538.562,136.034L538.505,152.577L522.228,152.788L522.199,161.182L537.992,161.675L538.173,166.53L516.097,166.475L516.099,147.085L532.693,146.659Z" style="fill:rgb(244,242,237);fill-rule:nonzero;"/>
            </g>
            <g transform="matrix(1,0,0,1,4.31445,0)">
                <path d="M448.568,146.659L448.568,140.929L431.871,141.075L431.568,135.585L454.437,136.034L454.177,166.53L431.568,166.108L431.99,161.17L448.302,161.358L448.426,152.651L431.974,152.733L431.974,147.085L448.568,146.659Z" style="fill:rgb(244,242,237);fill-rule:nonzero;"/>
            </g>
            <g transform="matrix(1,0,0,1,4.31445,0)">
                <path d="M504.911,162.484L494.109,162.482L493.616,140.525L505.115,140.733L504.911,162.484ZM487.681,135.585L488.085,166.476L510.161,166.53L510.55,136.034L487.681,135.585Z" style="fill:rgb(244,242,237);fill-rule:nonzero;"/>
            </g>
        </g>
        <g id="railings">
            <g transform="matrix(1,0,0,1,4.31445,0)">
                <path d="M150.098,646.986L159.172,651.668" style="fill:rgb(193,190,187);fill-rule:nonzero;"/>
            </g>
            <g transform="matrix(1,0,0,1,4.31445,0)">
                <path d="M288.172,475.232L296.188,478.809L298.172,645.668L289.098,640.986L288.172,475.232Z" style="fill:rgb(193,190,187);fill-rule:nonzero;"/>
            </g>
            <g transform="matrix(1,0,0,1,4.31445,0)">
                <path d="M472,475.232L463.984,478.809L462,645.668L471.074,640.986L472,475.232Z" style="fill:rgb(193,190,187);fill-rule:nonzero;"/>
            </g>
            <g transform="matrix(1,0,0,1,4.31445,0)">
                <path d="M611.537,589.334L578.172,471L188,471L154.635,589.334L151.172,682L171.182,689.959L171.488,680.168L160.047,675.625L162.889,593.355L196,481L570.172,481L603.283,593.355L606.125,675.625L594.683,680.168L594.99,689.959L615,682L611.537,589.334Z" style="fill:rgb(193,190,187);fill-rule:nonzero;"/>
            </g>
        </g>
        <g transform="matrix(1,0,0,1,4.31445,0)">
            <g id="skirt">
                <path d="M602,758L167,758L174,619L594,619L602,758Z" style="fill:rgb(42,43,42);fill-rule:nonzero;"/>
            </g>
        </g>
        <g id="doodads">
            <g transform="matrix(1,0,0,1,4.31445,0)">
                <path d="M360.003,725.124L349.948,694.891L410.051,694.775L400.266,725.255L360.003,725.124Z" style="fill:rgb(100,88,73);fill-rule:nonzero;"/>
            </g>
            <g transform="matrix(1,0,0,1,4.31445,0)">
                <path d="M370.815,117.222L365.358,136.983L397.974,137.057L392.664,117.136L370.815,117.222Z" style="fill:rgb(193,190,186);fill-rule:nonzero;"/>
            </g>
            <g transform="matrix(1,0,0,1,4.31445,0)">
                <path d="M370.815,148.249L365.358,168.01L397.974,168.084L392.664,148.163L370.815,148.249Z" style="fill:rgb(193,190,186);fill-rule:nonzero;"/>
            </g>
        </g>
        <g id="lights">
            <g transform="matrix(1,0,0,1,4.31445,0)">
                <path d="M187.929,570.652L181.874,620.885L241.976,621L236.192,570.52L187.929,570.652Z" style="fill:rgb(42,43,42);fill-rule:nonzero;"/>
            </g>
            <g transform="matrix(1,0,0,1,4.31445,0)">
                <path d="M528.113,570.652L522.058,620.885L582.16,621L576.375,570.52L528.113,570.652Z" style="fill:rgb(42,43,42);fill-rule:nonzero;"/>
            </g>
            <g transform="matrix(1,0,0,1,4.31445,0)">
                <path d="M565.217,597.74C565.217,604.976 559.35,610.849 552.11,610.849C544.873,610.849 539.002,604.976 539.002,597.74C539.002,590.498 544.873,584.631 552.11,584.631C559.35,584.631 565.217,590.498 565.217,597.74" style="fill:rgb(193,190,187);fill-rule:nonzero;"/>
            </g>
            <g transform="matrix(1,0,0,1,4.31445,0)">
                <path d="M224.107,597.74C224.107,604.976 218.24,610.849 211,610.849C203.763,610.849 197.892,604.976 197.892,597.74C197.892,590.498 203.763,584.631 211,584.631C218.24,584.631 224.107,590.498 224.107,597.74" style="fill:rgb(193,190,187);fill-rule:nonzero;"/>
            </g>
        </g>
    </g>
</svg>
